X:1
T:En Montant la Riviere
M:4/4
L:1/4
K:Eb
 G,| C D E2| G- F D2| E C C =B,/2C/2| D- =B,/2 G,3/2 G,/2| C D E2|\
 G- F D2| E15.9999925000037/23.999988000006 F15.9999925000037/23.999988000006 G15.9999925000037/23.999988000006 E C|\
 C- B, C G,| C C D E| F E D3/2 C/2| C D E G| F/2- E3/2 D||
